outputs/icons/navigation/dashboard_sharp.svg

<svg xmlns="http://www.w3.org/2000/svg" width="1200" height="1200" fill="none"><g clip-path="url(#a)"><path fill="#000" d="M150 650h400V150H150zm0 400h400V750H150zm500 0h400V550H650zm0-900v300h400V150z"/></g><defs><clipPath id="a"><path fill="#fff" d="M0 0h1200v1200H0z"/></clipPath></defs></svg>

<svg width="1200" height="1200" viewBox="0 0 1200 1200" fill="none" xmlns="http://www.w3.org/2000/svg"><g clip-path="url(#clip0_645_1665)"><path d="M150 650H550V150H150V650ZM150 1050H550V750H150V1050ZM650 1050H1050V550H650V1050ZM650 150V450H1050V150H650Z" fill="black"/></g><defs><clipPath id="clip0_645_1665"><path width="24" fill="white" d="M0 0H1200V1200H0V0z"/></clipPath></defs></svg>
